!! 00000] TT[WS
!!!OTL: Hunjiang long
!!!ARE: Asia, China,ÿShanxi Gaoping
!! Ethnic Group: Han
!! WI, 230 (1)
!!!SCT: J0275
!!!YEM: Copyright 1995, estate of Helmut Schaffrath.
**kern
*ICvox
*Ivox
*M2/4
*k[b-]
*F:
{8dd
8ff
8a
8ee
=1
2dd
=2
4g
8.ff
16ff
=3
8gg
8ee
8dd
8cc
=4
8a
8cc
8g
8a
=5
2cc}
=6
{8dd
8ff
8dd
8cc
=7
16dd
16cc
4a
16a
16g
=8
8.a
16g
4a
=9
8dd
8ff}
{8.f
16g
=10
8.a
16g
4a
=11
8dd
8ff
8.cc
16a
=12
8g
8a
8g
8f
=13
8d
8f
8d
8c
=14
4f
4f}
=15
{8g
8a
8g
8f
=16
16g
16f
4d
16d
16c
=17
8d
8e
8d
8e
=18
2d}
==
!!!AGN: Xiaodiao. Fengsuge
!!!ONB: ESAC (Essen Associative Code) Database: CHINA
!!!AMT: simple duple
!!!AIN: vox
!!!EED: Helmut Schaffrath
!!!EEV: 1.0
*-
